X: 1140
T: An Bratach Bana
R: march
M: 
K: Amajor
M: 2/4
|:EA Ae|c>B c/B/A|EA Ae|c>B c/B/A|
d>d ef|e2 c>d|ee Bc/B/|AE FE:|
2 c>E|FE A>F|E>F AE|cB BE|
c2 c>E|FE A>B|c<e Bc/B/|AE FE|
c2 c>E|FE A>F|E>F AE|cB Bc|
E>F AE|FE A>B|c<e Bc/B/|AE FE||

